X:120
T:Moving Cloud
R:Reel
C:Nellie Boyle
H:Also played in F
D:Matt Molloy: Heathery Breeze.
Z:id:hn-reel-144
M:C|
L:1/8
Q:1/4=200
K:G
|:DGBG EGcG|DGBG AGEG|cEGc Bdgb|aged cEGE|
D3G ~E3G|DGBG AGEG|cEGc BDGB|AGAB G4:|
|:d2bd adgd|d2bd adgd|e2c'e beae|e2c'e beae|
d2bd adgd|d2bd adgd|c'bac' bage|dBAB G4:|
|:Bd~d2 edBA|Bd~d2 edBd|ce~e2 fe~e2|gefd edBA|
Bd~d2 edBA|Bd~d2 edBd|cABG AFGF|EDEF G4:|
